public/blog-category-icon.svg

<svg width="36" height="37" viewBox="0 0 36 37" fill="none" xmlns="http://www.w3.org/2000/svg">
<g clip-path="url(#clip0_6511_7879)">
<g clip-path="url(#clip1_6511_7879)">
<g clip-path="url(#clip2_6511_7879)">
<path d="M4.50078 14.79L4.05078 12.315V10.065C4.12578 9.54 4.32078 8.49001 4.50078 8.49001C4.68078 8.49001 5.85078 8.04001 6.75078 7.81501L8.55078 7.59001C9.00078 7.59001 9.22578 7.59001 11.4758 7.14001C11.6523 7.10473 12.8258 6.91501 13.2758 6.91501L12.6008 6.01501L13.5008 6.91501L14.4008 7.81501L14.6258 8.49001C14.3258 8.56503 13.6358 8.71501 13.2758 8.71501H11.4758L10.5758 9.16501V9.84001C10.5758 10.02 10.4258 11.565 10.3508 12.315L10.1258 14.565L9.22578 14.79H4.95078H4.50078Z" fill="#FDC040"/>
<path d="M21.1484 8.71503L22.0484 7.59003L24.9734 5.56503L28.3484 4.21503C29.3984 3.91503 31.7684 3.45003 32.8484 3.99003C34.1984 4.66503 34.4234 4.89003 35.5484 6.91503C35.4734 8.49003 35.1884 11.775 34.6484 12.315L33.5234 14.34L32.8484 14.79H29.4734H24.5234H22.9484V13.215C22.9484 12.99 22.7234 11.415 22.7234 11.19V9.84003L22.4984 8.94003L22.0484 8.71503H21.1484Z" fill="#FDC040"/>
<path d="M25.8448 7.11862C25.5318 7.43169 25.3594 7.84789 25.3594 8.2906C25.3594 8.73327 25.5318 9.14947 25.8447 9.46254L29.676 13.2938C29.9891 13.6068 30.4052 13.7792 30.8479 13.7792C31.2906 13.7792 31.7068 13.6068 32.0197 13.2938C32.3328 12.9807 32.5052 12.5645 32.5052 12.1219C32.5052 11.6791 32.3328 11.2629 32.0198 10.9499L28.1886 7.11858C27.5424 6.47242 26.4909 6.4726 25.8448 7.11862ZM31.274 11.6958C31.3878 11.8095 31.4505 11.9609 31.4505 12.1219C31.4505 12.2828 31.3878 12.4341 31.274 12.548C31.1602 12.6618 31.0088 12.7245 30.8479 12.7245C30.6869 12.7245 30.5356 12.6618 30.4218 12.548L26.5905 8.71662C26.4767 8.60286 26.414 8.45148 26.414 8.29051C26.414 8.12955 26.4767 7.97826 26.5906 7.86441C26.708 7.74691 26.8623 7.68819 27.0167 7.68819C27.1709 7.68819 27.3254 7.74691 27.4428 7.86441L31.274 11.6958Z" fill="#3BB77E"/>
<path d="M35.8718 16.8274C35.6513 15.738 34.8648 14.8641 33.8587 14.4933C36.3536 10.3309 36.6995 6.43308 34.7036 4.43706C33.828 3.56157 32.5599 3.11331 31.0338 3.14143C30.7426 3.14678 30.5108 3.38719 30.5162 3.67836C30.5214 3.9663 30.7565 4.19609 31.0432 4.19609C31.0465 4.19609 31.0499 4.19609 31.0532 4.19602C32.3018 4.17289 33.2802 4.50519 33.9578 5.18282C35.0057 6.23071 35.034 7.82286 34.8732 8.974C34.6459 10.6019 33.9093 12.4378 32.7411 14.299C29.6996 14.241 26.6448 14.2009 23.5851 14.179C23.5652 12.3829 23.4541 10.5649 23.2521 8.76642C23.2245 8.5209 23.0301 8.3274 22.7844 8.30094C22.6272 8.28406 22.4697 8.26903 22.3123 8.25342C24.5385 6.37084 26.9186 5.04479 29.1095 4.47953C29.3916 4.40676 29.5611 4.11916 29.4884 3.83713C29.4156 3.5551 29.1279 3.38543 28.846 3.45827C28.0064 3.67492 27.1429 3.99442 26.2725 4.40626C26.442 3.66915 26.5228 2.7855 26.1992 2.12616C26.0043 1.7288 25.6816 1.45788 25.266 1.34263C24.6503 1.17205 23.6938 1.26163 22.6311 2.65774C22.5797 2.72531 22.53 2.79337 22.4822 2.86109C22.4764 2.84105 22.4706 2.82108 22.4645 2.80104C22.2557 2.10618 21.7098 0.94043 20.3984 0.94043C19.943 0.94043 19.5459 1.12198 19.2499 1.4654C18.8635 1.9138 18.6944 2.61027 18.6338 3.30442C18.1723 2.69746 17.6132 2.20962 17.0085 2.20962C16.6157 2.20962 16.2574 2.40974 15.9998 2.77312C15.3213 3.73039 15.3114 5.80497 15.9417 7.97856C15.7839 7.98054 15.6261 7.98409 15.4683 7.98742C14.4351 6.78178 13.1862 5.95207 12.6399 5.62006V4.46406C12.8875 4.42067 13.0757 4.20516 13.0757 3.94514V2.45621C13.0757 1.65378 12.4229 1.00097 11.6204 1.00097H8.34111C7.53867 1.00097 6.88585 1.65378 6.88585 2.45621V3.94514C6.88585 4.20516 7.07422 4.42067 7.32182 4.46406L7.32141 5.61984C6.60938 6.05229 4.70736 7.32687 3.64286 9.17763C3.42572 9.55356 3.32518 9.98682 3.35239 10.4316C3.40344 11.2421 3.53021 12.8179 3.80578 14.2893C3.58984 14.2933 3.37369 14.2969 3.1579 14.301C1.69309 14.3286 0.418841 15.3912 0.128158 16.8271C-0.0427076 17.6685 -0.0427076 18.5217 0.128088 19.3626C0.341424 20.418 1.08909 21.2891 2.07659 21.6736C2.13453 22.7471 2.23375 24.2738 2.39617 26.0089C1.96085 27.2418 1.53446 28.4752 1.12087 29.7061C0.765 30.7664 1.24146 31.9431 2.2298 32.4436C2.60585 32.6334 3.00123 32.7807 3.4059 32.8831C3.78412 33.9556 4.45915 34.8809 5.37381 35.5725C6.38379 36.3361 7.58731 36.7397 8.85424 36.7397H27.1458C28.4128 36.7397 29.6163 36.3361 30.6263 35.5725C31.541 34.8808 32.216 33.9555 32.5943 32.8828C33.0008 32.7795 33.3961 32.6321 33.7705 32.4429C34.759 31.9433 35.2356 30.7664 34.8791 29.7054C34.4652 28.4738 34.0389 27.2404 33.604 26.0084C33.7663 24.2734 33.8656 22.7467 33.9235 21.6733C34.9121 21.2878 35.6589 20.4173 35.8718 19.3631C36.0427 18.5216 36.0427 17.6684 35.8718 16.8274ZM22.2495 9.3061C22.4183 10.9255 22.5121 12.5582 22.5305 14.1728C18.6188 14.1501 14.7008 14.1565 10.7931 14.1927C10.8111 12.5718 10.9049 10.9324 11.0743 9.30601C14.7842 8.93589 18.5395 8.93589 22.2495 9.3061ZM16.8603 3.38304C16.8987 3.32889 16.9555 3.26434 17.0085 3.26434C17.3882 3.26434 18.1846 4.34762 18.751 5.63424C18.8442 5.86221 19.0844 5.99622 19.3291 5.95383C19.5818 5.90995 19.7663 5.69071 19.7663 5.43421C19.7663 5.40213 19.7633 5.37 19.7574 5.33836C19.4938 3.55636 19.7868 2.45797 20.0489 2.15386C20.1448 2.04255 20.2494 1.99508 20.3985 1.99508C21.6142 1.99508 21.6549 4.41407 21.655 4.43783C21.655 4.6871 21.8296 4.90212 22.0734 4.9536C22.3177 5.00513 22.5641 4.87864 22.6648 4.65061C23.0419 3.79775 24.1038 2.11526 24.984 2.35911C25.1094 2.39384 25.1896 2.46317 25.2522 2.59087C25.4765 3.04806 25.3565 4.05926 24.9636 5.09246C23.5689 5.89425 22.1778 6.91989 20.8588 8.12841C19.5895 8.03535 18.3166 7.98459 17.0434 7.97617C16.3086 5.67249 16.4807 3.91855 16.8603 3.38304ZM11.5852 5.39524H8.37625L8.37661 4.4725H11.5852L11.5852 5.39524ZM8.34111 2.05563H11.6204C11.8413 2.05563 12.021 2.23528 12.021 2.45614V3.41756H7.94061V2.45621C7.94061 2.23535 8.12025 2.05563 8.34111 2.05563ZM4.8456 14.1119C4.57821 12.6919 4.45479 11.155 4.40507 10.3663C4.39066 10.1298 4.4429 9.90123 4.55665 9.70431C5.56254 7.95543 7.50659 6.73467 7.98966 6.44991H11.9716C12.2798 6.6313 13.1843 7.19448 14.06 8.03373C12.8836 8.08705 11.7092 8.17534 10.5396 8.30103C10.2938 8.3274 10.0994 8.5209 10.0719 8.76651C9.86899 10.5733 9.7578 12.3995 9.73863 14.2033C8.11939 14.2206 6.5021 14.2424 4.88822 14.2697C4.87089 14.2183 4.85586 14.1658 4.8456 14.1119ZM3.14482 21.8885C3.14925 21.8886 3.1536 21.889 3.15804 21.8891L3.17491 21.8894C3.41138 21.8938 3.64785 21.8977 3.88439 21.9019C3.67303 22.4701 3.46313 23.0388 3.2557 23.6085C3.20922 22.966 3.17294 22.3864 3.14482 21.8885ZM27.1458 35.6849H8.8542C6.99188 35.6849 5.30554 34.5671 4.54896 32.8995C5.24173 32.7267 5.84253 32.2281 6.11829 31.5248C6.42222 30.7501 6.69834 30.0364 6.96249 29.343C7.06622 29.0708 6.92969 28.7662 6.65748 28.6624C6.38527 28.5588 6.08062 28.6953 5.9769 28.9675C5.71392 29.6577 5.43897 30.3681 5.13634 31.1397C4.91782 31.6971 4.3221 32.0164 3.74931 31.8818C3.38944 31.7979 3.03808 31.6702 2.70563 31.5023C2.18171 31.237 1.93027 30.6091 2.12068 30.0419C3.47277 26.0183 4.94762 21.9663 6.50421 17.9984C6.72309 17.4409 7.3192 17.1214 7.89043 17.2552C8.25385 17.3405 8.60526 17.4685 8.93556 17.6358C9.45959 17.9005 9.71082 18.5282 9.52002 19.096C8.63514 21.7289 7.6932 24.3875 6.72021 26.998C6.61846 27.2709 6.75724 27.5746 7.03017 27.6764C7.30309 27.7782 7.60675 27.6393 7.7085 27.3664C8.37153 25.5873 9.01971 23.7861 9.64593 21.9858C12.4189 22.0159 15.2091 22.0314 18 22.0314C20.791 22.0314 23.5815 22.0159 26.3547 21.9858C27.468 25.1866 28.6496 28.3847 29.8816 31.5243C30.1574 32.2276 30.7583 32.7262 31.4511 32.8991C30.6947 34.5669 29.0081 35.6849 27.1458 35.6849ZM33.2947 31.5015C32.9631 31.669 32.6115 31.797 32.2499 31.8817C31.6784 32.0157 31.0823 31.6964 30.8635 31.1389C29.3101 27.1802 27.8352 23.1282 26.4799 19.0954C26.2892 18.5278 26.5405 17.9 27.0645 17.6352C27.396 17.4677 27.7476 17.3397 28.1093 17.2549C28.197 17.2344 28.2852 17.2245 28.3725 17.2245C28.8549 17.2245 29.3105 17.5258 29.4957 17.9978C31.0491 21.9565 32.5239 26.0085 33.8792 30.0414C34.07 30.609 33.8187 31.2367 33.2947 31.5015ZM32.116 21.9019C32.3521 21.8977 32.5883 21.8938 32.8244 21.8894L32.8433 21.889C32.8473 21.889 32.8513 21.8886 32.8553 21.8885C32.8271 22.3862 32.7908 22.9656 32.7444 23.6078C32.5369 23.0382 32.3271 22.4697 32.116 21.9019ZM34.838 19.1536C34.6785 19.9427 34.0704 20.578 33.2856 20.7727C33.1376 20.8104 32.9813 20.8312 32.8222 20.8346L32.8047 20.8349C32.4443 20.8416 32.0839 20.8479 31.7235 20.854C31.3142 19.7683 30.899 18.6868 30.4775 17.6125C30.0688 16.5705 28.9468 15.9753 27.8687 16.228C27.4255 16.3319 26.9948 16.4886 26.5887 16.694C25.6001 17.1936 25.1235 18.3704 25.4801 19.4314C25.6484 19.9323 25.8186 20.4334 25.9905 20.9346C20.6837 20.9897 15.3158 20.9897 10.0089 20.9346C10.1809 20.4333 10.3516 19.9321 10.5196 19.4321C10.8765 18.3708 10.3998 17.1938 9.41152 16.6947C9.00706 16.4898 8.57637 16.3329 8.13114 16.2284C7.05299 15.9758 5.9314 16.5711 5.52222 17.6131C5.10057 18.6879 4.68549 19.7692 4.27661 20.8541C3.91589 20.848 3.5551 20.8416 3.19439 20.835L3.17885 20.8347C3.01846 20.8313 2.86222 20.8105 2.71118 20.772C1.92942 20.578 1.3212 19.9428 1.16165 19.1532C1.01912 18.4511 1.01912 17.7391 1.16172 17.0367C1.35523 16.081 2.20309 15.374 3.17786 15.3556C13.0131 15.1668 22.9867 15.1668 32.822 15.3556C33.7967 15.374 34.6445 16.081 34.8381 17.0371C34.9807 17.7391 34.9808 18.451 34.838 19.1536Z" fill="#3BB77E"/>
<path d="M11.0287 23.8367H10.9931C9.78534 23.8395 8.81073 24.7928 8.77428 26.0069C8.73149 27.4368 8.73149 28.8868 8.77428 30.3166C8.81073 31.5306 9.7853 32.4839 10.9935 32.4868H11.0287C12.2364 32.4839 13.2111 31.5307 13.2475 30.3166C13.2903 28.8868 13.2903 27.4368 13.2475 26.0069C13.211 24.7927 12.2364 23.8395 11.0287 23.8367ZM12.1932 30.285C12.1743 30.916 11.6507 31.4306 11.0266 31.432H10.9956C10.371 31.4306 9.84744 30.9159 9.82854 30.285C9.78629 28.8761 9.78629 27.4474 9.82854 26.0385C9.84744 25.4074 10.371 24.8929 10.996 24.8914H11.0257C11.6503 24.8929 12.1743 25.4074 12.1932 26.0385C12.2354 27.4474 12.2354 28.8761 12.1932 30.285Z" fill="#3BB77E"/>
<path d="M18.0169 23.8367H17.9814C16.7736 23.8395 15.799 24.7928 15.7626 26.0069C15.7198 27.4368 15.7198 28.8868 15.7626 30.3166C15.799 31.5306 16.7736 32.4839 17.9818 32.4868H18.0169C19.2247 32.4839 20.1993 31.5306 20.2357 30.3166C20.2785 28.8868 20.2785 27.4368 20.2357 26.0069C20.1993 24.7928 19.2247 23.8395 18.0169 23.8367ZM19.1814 30.285C19.1625 30.916 18.639 31.4306 18.0149 31.432H17.984C17.3593 31.4306 16.8358 30.9159 16.8169 30.285C16.7746 28.8761 16.7746 27.4474 16.8169 26.0385C16.8358 25.4074 17.3593 24.8929 17.9843 24.8914H18.0141C18.6387 24.8929 19.1625 25.4074 19.1814 26.0385C19.2237 27.4474 19.2237 28.8761 19.1814 30.285Z" fill="#3BB77E"/>
<path d="M25.0052 23.8367H24.9696C23.7618 23.8395 22.7873 24.7928 22.7509 26.0069C22.708 27.4368 22.708 28.8868 22.7509 30.3166C22.7873 31.5306 23.7618 32.484 24.9701 32.4868H25.0052C26.213 32.4839 27.1876 31.5306 27.224 30.3166C27.2669 28.8868 27.2669 27.4368 27.224 26.0069C27.1876 24.7928 26.213 23.8395 25.0052 23.8367ZM26.1697 30.285C26.1508 30.916 25.6273 31.4306 25.0031 31.432H24.9723C24.3477 31.4306 23.8241 30.9159 23.8052 30.285C23.7629 28.8761 23.7629 27.4474 23.8052 26.0385C23.8241 25.4074 24.3477 24.8929 24.9726 24.8914H25.0024C25.627 24.8929 26.1509 25.4074 26.1698 26.0385C26.212 27.4474 26.212 28.8761 26.1697 30.285Z" fill="#3BB77E"/>
</g>
</g>
</g>
<defs>
<clipPath id="clip0_6511_7879">
<rect width="36" height="36" fill="white" transform="translate(0 0.840027)"/>
</clipPath>
<clipPath id="clip1_6511_7879">
<rect width="36" height="36" fill="white" transform="translate(0 0.840027)"/>
</clipPath>
<clipPath id="clip2_6511_7879">
<rect width="36" height="36" fill="white" transform="translate(0 0.840027)"/>
</clipPath>
</defs>
</svg>

<svg xmlns="http://www.w3.org/2000/svg" width="36" height="37" fill="none"><g clip-path="url(#a)"><g clip-path="url(#b)"><g clip-path="url(#c)"><path fill="#FDC040" d="m4.5 14.79-.45-2.475v-2.25c.076-.525.27-1.575.45-1.575s1.35-.45 2.25-.675l1.8-.225c.45 0 .676 0 2.926-.45.176-.035 1.35-.225 1.8-.225l-.675-.9.9.9.9.9.225.675c-.3.075-.99.225-1.35.225h-1.8l-.9.45v.675c0 .18-.15 1.725-.225 2.475l-.225 2.25-.9.225H4.5M21.148 8.715l.9-1.125 2.925-2.025 3.375-1.35c1.05-.3 3.42-.765 4.5-.225 1.35.675 1.575.9 2.7 2.925-.075 1.575-.36 4.86-.9 5.4l-1.125 2.025-.675.45h-9.899999999999999v-1.575c0-.225-.225-1.8-.225-2.025V9.84l-.225-.9-.45-.225z"/><path fill="#3BB77E" d="M25.845 7.119c-.313.313-.486.729-.486 1.172s.173.858.486 1.172l3.831 3.83c.313.314.73.486 1.172.486.443 0 .859-.172 1.172-.485s.485-.73.485-1.172c0-.443-.172-.86-.485-1.172l-3.831-3.831a1.66 1.66 0 0 0-2.344 0m5.429 4.577a.6.6 0 0 1 0 .852.6.6 0 0 1-.852 0L26.59 8.717a.6.6 0 0 1 0-.853.6.6 0 0 1 .853 0z"/><path fill="#3BB77E" d="M35.872 16.827a3.18 3.18 0 0 0-2.013-2.334c2.495-4.162 2.84-8.06.845-10.056-.876-.875-2.144-1.324-3.67-1.296a.527.527 0 0 0 .01 1.055h.01c1.248-.023 2.226.31 2.904.987 1.048 1.048 1.076 2.64.915 3.791-.227 1.628-.964 3.464-2.132 5.325a769 769 0 0 0-9.156-.12 54 54 0 0 0-.333-5.413.53.53 0 0 0-.468-.465q-.235-.025-.472-.048c2.226-1.882 4.607-3.208 6.797-3.773a.527.527 0 1 0-.263-1.022c-.84.217-1.703.536-2.573.948.169-.737.25-1.62-.074-2.28a1.45 1.45 0 0 0-.933-.783c-.616-.17-1.572-.081-2.635 1.315a7 7 0 0 0-.149.203l-.017-.06c-.21-.695-.755-1.86-2.067-1.86-.455 0-.852.181-1.148.524-.387.449-.556 1.145-.616 1.84-.462-.608-1.02-1.095-1.625-1.095-.393 0-.752.2-1.01.563-.678.957-.688 3.032-.057 5.206l-.474.008c-1.033-1.205-2.282-2.035-2.828-2.367V4.464a.53.53 0 0 0 .436-.519V2.456c0-.802-.653-1.455-1.456-1.455H8.341c-.802 0-1.455.653-1.455 1.455v1.49c0 .26.188.475.436.518V5.62c-.713.432-2.615 1.707-3.68 3.558-.216.376-.317.809-.29 1.254.051.81.178 2.386.454 3.857l-.648.012a3.17 3.17 0 0 0-3.03 2.526 6.3 6.3 0 0 0 0 2.536 3.17 3.17 0 0 0 1.949 2.31c.058 1.074.157 2.6.32 4.336a256 256 0 0 0-1.276 3.697 2.27 2.27 0 0 0 1.109 2.738c.376.19.771.337 1.176.44a5.75 5.75 0 0 0 1.968 2.688 5.73 5.73 0 0 0 3.48 1.168h18.292c1.267 0 2.47-.404 3.48-1.168a5.75 5.75 0 0 0 1.968-2.69 5.8 5.8 0 0 0 1.176-.44c.989-.499 1.466-1.676 1.11-2.737q-.623-1.848-1.276-3.697c.162-1.735.262-3.261.32-4.335a3.17 3.17 0 0 0 1.948-2.31c.17-.841.17-1.695 0-2.536M22.25 9.307a53 53 0 0 1 .28 4.866c-3.911-.023-7.83-.017-11.737.02.018-1.621.112-3.26.281-4.887 3.71-.37 7.466-.37 11.176 0m-5.39-5.924c.039-.054.096-.119.149-.119.38 0 1.176 1.084 1.742 2.37a.527.527 0 0 0 1.006-.296c-.263-1.782.03-2.88.292-3.184a.42.42 0 0 1 .35-.159c1.215 0 1.256 2.42 1.256 2.443a.527.527 0 0 0 1.01.213c.377-.853 1.439-2.536 2.319-2.292a.4.4 0 0 1 .268.232c.225.457.105 1.468-.288 2.501-1.395.802-2.786 1.828-4.105 3.036a57 57 0 0 0-3.816-.152c-.734-2.304-.562-4.057-.183-4.593m-5.275 2.012H8.376v-.922h3.21zm-3.244-3.34h3.28c.22 0 .4.18.4.401v.962h-4.08v-.962c0-.22.18-.4.4-.4M4.846 14.113c-.268-1.42-.391-2.957-.44-3.746a1.17 1.17 0 0 1 .15-.662c1.007-1.749 2.95-2.97 3.434-3.254h3.982c.308.181 1.212.744 2.088 1.584q-1.764.079-3.52.267a.53.53 0 0 0-.468.466 54 54 0 0 0-.333 5.436q-2.43.027-4.85.067a1 1 0 0 1-.043-.158m-1.701 7.777h.03l.71.013a262 262 0 0 0-.63 1.706c-.046-.642-.082-1.222-.11-1.72m24 13.796H8.856A4.76 4.76 0 0 1 4.548 32.9a2.28 2.28 0 0 0 1.57-1.375c.303-.775.58-1.489.843-2.182a.527.527 0 1 0-.985-.375c-.263.69-.538 1.4-.84 2.172a1.21 1.21 0 0 1-1.388.742 4.7 4.7 0 0 1-1.043-.38 1.21 1.21 0 0 1-.585-1.46 259 259 0 0 1 4.383-12.044 1.21 1.21 0 0 1 1.386-.743q.548.129 1.046.38c.524.265.775.893.584 1.461a259 259 0 0 1-2.8 7.902.527.527 0 0 0 .989.368c.663-1.779 1.31-3.58 1.937-5.38a770 770 0 0 0 16.709 0c1.113 3.2 2.295 6.399 3.527 9.538a2.28 2.28 0 0 0 1.57 1.375 4.76 4.76 0 0 1-4.306 2.786m6.15-4.184a4.7 4.7 0 0 1-1.045.38 1.21 1.21 0 0 1-1.387-.742 259 259 0 0 1-4.383-12.044c-.19-.567.06-1.195.584-1.46a4.7 4.7 0 0 1 1.045-.38q.132-.03.263-.03c.483 0 .939.3 1.124.773a259 259 0 0 1 4.383 12.043c.191.568-.06 1.196-.584 1.46m-1.179-9.6.708-.012h.031c-.028.497-.064 1.077-.11 1.719q-.312-.854-.629-1.706m2.722-2.747a2.106 2.106 0 0 1-2.016 1.68h-.017q-.54.011-1.081.02-.614-1.63-1.247-3.241c-.408-1.043-1.53-1.638-2.608-1.385-.444.104-.874.26-1.28.466-.989.5-1.465 1.676-1.109 2.737q.253.751.51 1.504a773 773 0 0 1-15.981 0q.259-.753.51-1.503c.357-1.061-.12-2.238-1.107-2.737a5.7 5.7 0 0 0-1.28-.467c-1.079-.252-2.2.343-2.61 1.385a259 259 0 0 0-1.245 3.241l-1.083-.019H3.18a2.105 2.105 0 0 1-2.017-1.682 5.3 5.3 0 0 1 0-2.116 2.11 2.11 0 0 1 2.016-1.681 776 776 0 0 1 29.644 0 2.11 2.11 0 0 1 2.016 1.681 5.3 5.3 0 0 1 0 2.117"/><path fill="#3BB77E" d="M11.029 23.837h-.036a2.22 2.22 0 0 0-2.219 2.17 72 72 0 0 0 0 4.31 2.22 2.22 0 0 0 2.22 2.17h.035a2.22 2.22 0 0 0 2.219-2.17c.042-1.43.042-2.88 0-4.31a2.22 2.22 0 0 0-2.22-2.17m1.164 6.448a1.185 1.185 0 0 1-1.166 1.147h-.031a1.186 1.186 0 0 1-1.167-1.147 71 71 0 0 1 0-4.247 1.186 1.186 0 0 1 1.167-1.147h.03a1.186 1.186 0 0 1 1.167 1.148 71 71 0 0 1 0 4.246M18.017 23.837h-.036a2.22 2.22 0 0 0-2.218 2.17 72 72 0 0 0 0 4.31 2.22 2.22 0 0 0 2.219 2.17h.035a2.22 2.22 0 0 0 2.219-2.17c.043-1.43.043-2.88 0-4.31a2.22 2.22 0 0 0-2.22-2.17m1.164 6.448a1.185 1.185 0 0 1-1.166 1.147h-.031a1.186 1.186 0 0 1-1.167-1.147 71 71 0 0 1 0-4.247 1.186 1.186 0 0 1 1.167-1.147h.03a1.186 1.186 0 0 1 1.167 1.148 71 71 0 0 1 0 4.246M25.005 23.837h-.035a2.22 2.22 0 0 0-2.22 2.17 72 72 0 0 0 0 4.31 2.22 2.22 0 0 0 2.22 2.17h.035a2.22 2.22 0 0 0 2.219-2.17c.043-1.43.043-2.88 0-4.31a2.22 2.22 0 0 0-2.219-2.17m1.165 6.448a1.185 1.185 0 0 1-1.167 1.147h-.03a1.186 1.186 0 0 1-1.168-1.147 71 71 0 0 1 0-4.247 1.186 1.186 0 0 1 1.168-1.147h.03a1.186 1.186 0 0 1 1.167 1.148 71 71 0 0 1 0 4.246"/></g></g></g><defs><clipPath id="a"><path fill="#fff" d="M0 .84h36v36H0z"/></clipPath><clipPath id="b"><path fill="#fff" d="M0 .84h36v36H0z"/></clipPath><clipPath id="c"><path fill="#fff" d="M0 .84h36v36H0z"/></clipPath></defs></svg>
